X:0
T:Humble Pie
M:C|
C:© Paul Gitlitz 2009
R:Reel
K:D
A|"D"dFcF BFAF|"D"dcdf a3f|"F#m"bfaf "Bm"bfaf|"Em"gfed "A"cdeA|!
"D"dAcA BAFA|"D"dcdf a3f|"G"gbgb "D"fafa|1"A"egec "D"d3:|2"Em"egec "D"de(3efg|!
|:"D"a2af "Em"g2ge|"D"f2fd "A"edcA|"D"a2af "Em"g2ge|"A"efec "D"defg|!
"D"a2af "Em"g2ge|"D"f2fd "A"edcA|"D"aAgA "D"fAeA|"Em"bgec "D"d4:|]
